X:1
T: Rutherglen Lums
C:
R:Strathspey
Q: 128
K:F
M:4/4
L:1/16
|:c3d c3A GF3 F3G|C3D F3G Ac3 df3|c3d c3A GF3 F3A|D3G FEDE F6 A2|
c3d c3A GF3 F3G|C3D F3G Ac3 df3|c3d c3A GF3 F3A|D3G FEDE F6 A2|
c3d cA3 cf3 df3|c3d cA3 AG3 GA3|c3d cA3 cf3 df3|D3G FEDE F6 A2|
c3d cA3 cf3 df3|c3d cA3 AG3 GA3|c3d cA3 cf3 df3|D3G FEDE F8:|
